X: 9694
T: Dearne Valley
R: reel
M: 4/4
K: Amajor
|:"A"ecBA Bcef|ecBA "D"F2 af|"A"ecBA Bcef|ecag "D"f3a|
"A"ecBA Bcef|ecBA "D"F2 AF|"E"EFAE FABc|1 ecBF "A"A3f:|2 ecBF "A"A2GA||
|:"Fm"F2FE FABc|"E"EFEC E2AG|"Fm"F2FE FABc|"E"efecegag|
"Fm"fgaf ecBA|"D"dcBA "Bm"F2AF|"E"EFAE FABc|1 ecBF "A"A2GA:|2 ecBF "A"A4||

